X:152
T:Tenpenny Bit
Z: id:dc-jig-127
M:6/8
L:1/8
K:A Dorian
gf|eAA eAA|BAB GBd|eAA eAA|def g2f|!
eAA eAA|BAB GBd|ede gdB|BAG A:|!
zd|eaa aga|bab ged|eaa aga|bab g2d|!
eaa aga|bab ged|def gdB|BAG A:|!